X:158
T: Búélesztő szellő...
M: 2/4
L: 1/4
K: Bb
g/g/g/f/ | e<d | 
f/f/e/d/ | c<B | 
f/f/e/d/ | c<B | 
d/d/c/B/ | A<G | 


